icon-themes/sifr_svg/cmd/sc_changecasetoupper.svg

<svg viewBox="0 0 16 16" xmlns="http://www.w3.org/2000/svg"><path d="m12.5625 0-.2625.28125-2.01875 2c-.18821.18818-.28125.45346-.28125.71875v1h1c.26531 0 .53057-.09314.71875-.28125l.28125-.28125v2.5625h2v-2.5625l.28125.28125c.18817.18125.45345.28125.71875.28125h1v-1c0-.26531-.09311-.53058-.28125-.71875l-2-2-.28125-.28125zm-5.5625 5v8h3.5c1.380712 0 2.5-1.119288 2.5-2.5 0-.7-.561791-1.8505692-1.439453-2.2617188.27113-.3382812.439453-.7382812.439453-1.2382812 0-1.1-.895431-2-2-2zm1 1h2c.552285 0 1 .447715 1 1 0 .5522847-.447715 1-1 1h-2zm-6 2v1h3v1h-2.5c-.828427 0-1.5.671573-1.5 1.5s.671573 1.5 1.5 1.5h3.5v-4c0-.5522847-.447715-1-1-1zm6 1h2.5c.828427 0 1.5.671573 1.5 1.5s-.671573 1.5-1.5 1.5h-2.5zm-5.5 2h2.5v1h-2.5c-.276142 0-.5-.223858-.5-.5s.223858-.5.5-.5z" fill="#555753"/></svg>

<svg xmlns="http://www.w3.org/2000/svg" viewBox="0 0 16 16">
  <path
     style="fill:#555753"
     d="M 12.5625 0 L 12.3 0.28125 L 10.28125 2.28125 C 10.09304 2.46943 10 2.73471 10 3 L 10 4 L 11 4 C 11.26531 4 11.53057 3.90686 11.71875 3.71875 L 12 3.4375 L 12 6 L 14 6 L 14 3.4375 L 14.28125 3.71875 C 14.46942 3.9 14.7347 4 15 4 L 16 4 L 16 3 C 16 2.73469 15.90689 2.46942 15.71875 2.28125 L 13.71875 0.28125 L 13.4375 0 L 12.5625 0 z M 7 5 L 7 13 L 10.5 13 C 11.880712 13 13 11.880712 13 10.5 C 13 9.8 12.438209 8.6494308 11.560547 8.2382812 C 11.831677 7.9 12 7.5 12 7 C 12 5.9 11.104569 5 10 5 L 7 5 z M 8 6 L 10 6 C 10.552285 6 11 6.447715 11 7 C 11 7.5522847 10.552285 8 10 8 L 8 8 L 8 6 z M 2 8 L 2 9 L 5 9 L 5 10 L 2.5 10 C 1.671573 10 1 10.671573 1 11.5 C 1 12.328427 1.671573 13 2.5 13 L 6 13 L 6 9 C 6 8.4477153 5.552285 8 5 8 L 2 8 z M 8 9 L 10.5 9 C 11.328427 9 12 9.671573 12 10.5 C 12 11.328427 11.328427 12 10.5 12 L 8 12 L 8 9 z M 2.5 11 L 5 11 L 5 12 L 2.5 12 C 2.223858 12 2 11.776142 2 11.5 C 2 11.223858 2.223858 11 2.5 11 z "
     />
</svg>
